src/images_karasa_jaga_svg/cmd/32/importslidefromfile.svg

<svg enable-background="new 0 0 128 128" height="32" viewBox="0 0 46.545455 46.545455" width="32" xmlns="http://www.w3.org/2000/svg" xmlns:xlink="http://www.w3.org/1999/xlink"><linearGradient id="a" gradientTransform="matrix(0 .3318084 -.3318084 0 26.211549 -4.302571)" gradientUnits="userSpaceOnUse" x1="63.998402" x2="63.998402" y1="2.012823" y2="74.721313"><stop offset="0" stop-color="#fefefe"/><stop offset=".23920465" stop-color="#e9eaea"/><stop offset="1" stop-color="#fdfdfd"/></linearGradient><linearGradient id="b" gradientTransform="matrix(0 -1.0293895 1.0293895 0 11.93834 80.22496)" gradientUnits="userSpaceOnUse" x1="14.927177" x2="67.868713" y1="61.88969" y2="61.88969"><stop offset="0"/><stop offset=".03358149"/><stop offset=".56999999" stop-opacity=".588235"/><stop offset=".74199998" stop-color="#3b3b3b" stop-opacity=".72"/><stop offset="1" stop-color="#fff" stop-opacity="0"/></linearGradient><filter id="c"><feGaussianBlur stdDeviation="1.8227906"/></filter><linearGradient id="d" gradientTransform="matrix(0 -1.0293895 1.0293895 0 11.93834 80.22496)" gradientUnits="userSpaceOnUse" x1="16.766296" x2="65.071007" y1="47.843315" y2="47.843315"><stop offset="0"/><stop offset=".04418617"/><stop offset=".56999999" stop-opacity=".588235"/><stop offset=".74199998" stop-color="#3b3b3b" stop-opacity=".72"/><stop offset="1" stop-color="#fff" stop-opacity="0"/></linearGradient><filter id="e"><feGaussianBlur stdDeviation="1.0669687"/></filter><linearGradient id="f" gradientUnits="userSpaceOnUse" x1="56" x2="56" y1="32" y2="88.117546"><stop offset="0" stop-color="#fff"/><stop offset="1" stop-color="#fff" stop-opacity="0"/></linearGradient><filter id="g"><feGaussianBlur stdDeviation="1.9"/></filter><filter id="h"><feGaussianBlur stdDeviation="1.1263538"/></filter><linearGradient id="i" gradientUnits="userSpaceOnUse" x1="52" x2="52" y1="64" y2="68"><stop offset="0"/><stop offset="1" stop-opacity="0"/></linearGradient><radialGradient id="j" cx="48" cy="112" gradientTransform="matrix(1.3667896 .00220264 -.00165678 1.028074 -1.13535 -13.092416)" gradientUnits="userSpaceOnUse" r="32"><stop offset="0" stop-color="#ffea00"/><stop offset="1" stop-color="#ffa000"/></radialGradient><radialGradient id="k" cx="100.88867" cy="155.99673" gradientTransform="matrix(5.8172522 0 0 5.1765744 -450.23524 -615.02583)" gradientUnits="userSpaceOnUse" r="40"><stop offset="0" stop-color="#fff"/><stop offset=".11366145" stop-color="#bdbebf"/><stop offset=".20296688" stop-color="#ececec"/><stop offset=".2363" stop-color="#fafafa"/><stop offset=".38818121" stop-color="#fff"/><stop offset=".5313" stop-color="#fafafa"/><stop offset=".8449" stop-color="#ebecec"/><stop offset="1" stop-color="#e1e2e3"/></radialGradient><filter id="l" height="1.294962" width="1.106002" x="-.053001" y="-.147481"><feGaussianBlur stdDeviation="1.4133574"/></filter><clipPath id="m"><path d="m19.483356 55.223471c-1.219674 0-2.1875.967827-2.1875 2.1875v17.0625c9.640302 2.396967 19.213441 4.526529 30.704145 4.526529s22.359699-2.129562 32-4.526529v-17.0625c0-1.219674-.967827-2.1875-2.1875-2.1875z" filter="url(#l)"/></clipPath><g transform="matrix(.3636375 0 0 .3636375 -.401869 .255835)"><path d="m22.438268 48.6875c-3.884437 0-6.999999 3.146813-6.999999 7.03125v57.96875c0 3.88444 3.115562 7 6.999999 7h58.561732c3.884437 0 7-3.11556 7-7v-57.96875c0-3.884437-3.115563-7.03125-7-7.03125l-6.846494-.04752-.0269 5.039421c0 .95614-.762611 1.71875-1.71875 1.71875h-11.502696c-.95614 0-1.71875-.762611-1.71875-1.71875l.0269-5.039421z" style="fill:#020202;stroke:#000;stroke-width:2;stroke-linecap:round;stroke-linejoin:round;stroke-dashoffset:1.0878;filter:url(#g)" transform="matrix(1.2962495 0 0 1.3017032 2.059823 -46.237988)"/><path d="m29.851958 15.358263c-4.842843 0-8.709337 3.920611-8.746884 8.783687v67.154219 10.738841c0 4.86324 3.904041 8.7837 8.746884 8.7837h78.497522c4.84284 0 8.74689-3.92046 8.74689-8.7837v-77.89306c0-4.863221-3.90405-8.783687-8.74689-8.783687l-11.244643-.06186-.03487 5.72119c0 1.267689-1.006861 2.278788-2.269241 2.278788h-11.461471c-1.262376 0-2.269238-1.0111-2.269238-2.278788l.03487-5.72119z" fill="#fff"/><path d="m29.749387 16.499312c-3.849102 0-6.959096 3.123078-6.959096 6.988378v79.20158c0 3.86532 3.109992 6.98839 6.959096 6.98839h79.272633c3.84911 0 6.95911-3.12307 6.95911-6.98839v-79.20158c0-3.865299-3.11-6.988378-6.95911-6.988378l-11.805245-.06186-.03487 5.158256c0 1.590917-1.273951 2.870226-2.858206 2.870226h-10.325866c-1.584256 0-2.8582-1.279306-2.8582-2.870226l.03487-5.158256z" fill="url(#k)"/><rect fill="url(#j)" height="67.999786" rx="3.081831" ry="3.01785" width="79.999748" x="29.105049" y="35.296345"/><rect fill="url(#i)" filter="url(#h)" height="32.776531" rx="2.201577" transform="matrix(1.3998291 0 0 1.3707673 -2.906808 -51.368322)" width="57.131596" x="22.868404" y="63.223469"/><path d="m29.787688 100.35341v1.37077c0 1.67187 1.354793 2.99854 3.062126 2.99854h73.263336c1.70735 0 3.06213-1.32667 3.06213-2.99854v-1.37077c0 1.67188-1.35478 2.99856-3.06213 2.99856h-73.263336c-1.707333 0-3.062126-1.32668-3.062126-2.99856z" fill="#fff"/><path clip-path="url(#m)" d="m25.198321 55.223471c-1.219674 0-2.1875.967827-2.1875 2.1875v17.0625c9.640301 2.396967 19.21344 4.526529 30.704144 4.526529s16.644734-2.129562 26.285035-4.526529v-17.0625c0-1.219674-.967827-2.1875-2.1875-2.1875z" fill="url(#f)" filter="url(#l)" transform="matrix(1.3998291 0 0 1.3707673 -2.906808 -40.402185)"/></g><g transform="translate(0 2.909091)"><path d="m63.125 5.15625c.341318-.075982.13001-.044027-.28125.34375-.180432.1729642-.39368.3115756-.625.40625-.02065.01078-.04149.021199-.0625.03125l-34.375 31.90625-.03125.03125c-.307849.269477-.281245.07715-.28125.65625 0 .612603-.05897.336906.3125.6875.01053.0103.02095.02072.03125.03125l8.15625 8.1875c.01042-.000082.02083-.000082.03125 0 .419505.394913.732683.426122 1.1875.09375.0103-.01053.02072-.02095.03125-.03125l15.84375-12.65625c.575332-.465644 1.41944-.570856 2.091471-.260688.672032.310169 1.139608 1.020774 1.158529 1.760688l-.09592 34.899732c.000327.02083.000327.04167 0 .0625.0026.540917.06438.789622.09375.9375h13.348096c.783229-.0037.933752-.154281.9375-.9375-.000327-.02083-.000327-.04167 0-.0625l-.095926-34.899732c.01892-.739914.486497-1.450519 1.158529-1.760688.672031-.310168 1.516139-.204956 2.091471.260688l15.84375 12.65625c.162465.123825 1.009528.06954 1.1875-.0625.0047-.0035.02755.0036.03125 0l8.25-8.21875c.0103-.01053.02072-.02095.03125-.03125.247682-.233751.218756-.243788.21875-.65625 0-.278737-.02225-.429259-.25-.65625l-.03125-.03125-34.96875-32.40625c-.01053-.010301-.02095-.020718-.03125-.03125-.08893-.084596-.189941-.118366-.3125-.125-.126608-.00884-.252367-.029804-.375-.0625-.458339-.1069222-.12945-.0823793-.21875-.0625z" fill="url(#d)" filter="url(#e)" transform="matrix(0 .3318084 -.3318084 0 26.710799 -4.302571)"/><path d="m62.9375 4.3125c-.02357.00525-.332542.1983448-.71875.5625-.132984.1195618-.295376.2061708-.46875.25l-34.59375 32.09375c-.411685.388533-.593743.45668-.59375 1.3125 0 .855799.182112.923994.59375 1.3125.01062.01021.02104.02063.03125.03125l8.15625 8.1875c.0057.0058.02531.02542.03125.03125.715642.692211 1.559238.718836 2.34375.15625.0205-.01107.04134-.0215.0625-.03125-.000147-.01042-.000147-.02083 0-.03125l15.84375-12.65625c.642249-.494063 1.75668.03383 1.78125.84375l-.09592 34.899732c.000147.01042.000147.02083 0 .03125.0034.702251.100855 1.31529.21875 1.5625s.04325.278606.59375.28125h13.535596c1.199172-.0057 1.838012-.644587 1.84375-1.84375-.000147-.01042-.000147-.02083 0-.03125l-.095926-34.899732c.02457-.809925 1.139001-1.337813 1.78125-.84375l15.84375 12.65625c.000147.01042.000147.02083 0 .03125.0069.0053.0241-.0051.03125 0 .579895.416729 1.838395.363792 2.34375-.125.0058-.0057.02542-.02531.03125-.03125l8.25-8.21875c.01021-.01062.02063-.02104.03125-.03125.44344-.418496.50001-.737695.5-1.28125 0-.478351-.10759-.883175-.5625-1.3125l-35-32.4375c-.241932-.2301453-.572825-.3882021-.90625-.40625-.063241-.0050177-.12605-.0154857-.1875-.03125-.376499-.0878306-.340059-.0946814-.625-.03125z" fill="url(#b)" filter="url(#c)" opacity=".5" transform="matrix(0 .3318084 -.3318084 0 26.710799 -4.302571)"/><g stroke-width=".363636"><path d="m24.956007 16.829675-10.929925 11.613043c-.02633.02791-.06302.04374-.101399.04374-.03838 0-.07506-.01581-.101399-.04374l-2.732483-2.732481c-.04791-.04953-.05245-.126647-.01068-.181453l5.283511-6.607053h-13.2859043c-.076481-.000364-.1383913-.06227-.1387578-.138764v-4.098718c.0003636-.07648.062276-.138392.1387578-.138757h13.2859083l-5.283509-6.607053c-.04177-.054812-.03724-.13192.01068-.1814524l2.732478-2.7324829c.02633-.02791.06303-.043729.101404-.043729.03838 0 .07506.015821.101399.043729l10.929922 11.6130433c.07849.05559 0 .133891 0 .192128z" fill="url(#a)"/><path d="m24.988926 16.683079c-.0036-.01607-.01876-.03729-.03839-.05118l-10.929431-11.6077302c-.02633-.027913-.064-.038394-.102386-.038394-.03838 0-.06324.010487-.08958.038394l-.838009.7422796 10.225541 10.8654376c.07849.05559 0 .133731 0 .19197l-10.225541 10.878237.838003.742279c.02636.02791.05121.0384.08959.0384s.07604-.01047.102385-.0384l10.929425-11.620516c0-.04368.04943-.09257.03839-.140771z" fill="#fff"/></g></g></svg>

<?xml version="1.0" encoding="UTF-8" standalone="no"?>
<svg
   xmlns:dc="http://purl.org/dc/elements/1.1/"
   xmlns:cc="http://creativecommons.org/ns#"
   xmlns:rdf="http://www.w3.org/1999/02/22-rdf-syntax-ns#"
   xmlns:svg="http://www.w3.org/2000/svg"
   xmlns="http://www.w3.org/2000/svg"
   xmlns:sodipodi="http://sodipodi.sourceforge.net/DTD/sodipodi-0.dtd"
   xmlns:inkscape="http://www.inkscape.org/namespaces/inkscape"
   enable-background="new 0 0 128 128"
   height="32"
   viewBox="0 0 46.545455 46.545455"
   width="32"
   version="1.1"
   id="svg62"
   sodipodi:docname="importslidefromfile.svg"
   inkscape:version="0.92.4 (unknown)"
   inkscape:export-filename="/home/rizmut/Dokumen/Rizmut/Github/libreoffice-style-karasa-jaga/build/next/cmd/32/importslidefromfile.png"
   inkscape:export-xdpi="96"
   inkscape:export-ydpi="96">
  <metadata
     id="metadata68">
    <rdf:RDF>
      <cc:Work
         rdf:about="">
        <dc:format>image/svg+xml</dc:format>
        <dc:type
           rdf:resource="http://purl.org/dc/dcmitype/StillImage" />
        <dc:title></dc:title>
      </cc:Work>
    </rdf:RDF>
  </metadata>
  <defs
     id="defs66">
    <radialGradient
       id="p"
       cx="64"
       cy="44.124767"
       gradientTransform="matrix(1,0,0,1.0659243,0,-3.03366)"
       gradientUnits="userSpaceOnUse"
       r="30.321386">
      <stop
         offset="0"
         stop-color="#f8f8f8"
         id="stop2469" />
      <stop
         offset="1"
         stop-color="#f8f8f8"
         stop-opacity="0"
         id="stop2471" />
    </radialGradient>
    <filter
       id="q">
      <feGaussianBlur
         stdDeviation=".37163452"
         id="feGaussianBlur2474" />
    </filter>
    <linearGradient
       id="k"
       gradientTransform="matrix(0,0.3318084,-0.3318084,0,26.211549,-4.302571)"
       gradientUnits="userSpaceOnUse"
       x1="63.998402"
       x2="63.998402"
       y1="2.0128231"
       y2="74.721313">
      <stop
         offset="0"
         stop-color="#fefefe"
         id="stop2434" />
      <stop
         offset=".23920465"
         stop-color="#e9eaea"
         id="stop2436" />
      <stop
         offset="1"
         stop-color="#fdfdfd"
         id="stop2438" />
    </linearGradient>
    <linearGradient
       id="o"
       gradientTransform="matrix(0,-1.0293895,1.0293895,0,11.93834,80.22496)"
       gradientUnits="userSpaceOnUse"
       x1="14.927177"
       x2="67.868713"
       y1="61.88969"
       y2="61.88969">
      <stop
         offset="0"
         id="stop2458" />
      <stop
         offset=".03358149"
         id="stop2460" />
      <stop
         offset=".56999999"
         stop-opacity=".588235"
         id="stop2462" />
      <stop
         offset=".74199998"
         stop-color="#3b3b3b"
         stop-opacity=".72"
         id="stop2464" />
      <stop
         offset="1"
         stop-color="#fff"
         stop-opacity="0"
         id="stop2466" />
    </linearGradient>
    <filter
       id="l">
      <feGaussianBlur
         stdDeviation="1.8227906"
         id="feGaussianBlur2441" />
    </filter>
    <linearGradient
       id="n"
       gradientTransform="matrix(0,-1.0293895,1.0293895,0,11.93834,80.22496)"
       gradientUnits="userSpaceOnUse"
       x1="16.766296"
       x2="65.071007"
       y1="47.843315"
       y2="47.843315">
      <stop
         offset="0"
         id="stop2447" />
      <stop
         offset=".04418617"
         id="stop2449" />
      <stop
         offset=".56999999"
         stop-opacity=".588235"
         id="stop2451" />
      <stop
         offset=".74199998"
         stop-color="#3b3b3b"
         stop-opacity=".72"
         id="stop2453" />
      <stop
         offset="1"
         stop-color="#fff"
         stop-opacity="0"
         id="stop2455" />
    </linearGradient>
    <filter
       id="m">
      <feGaussianBlur
         stdDeviation="1.0669687"
         id="feGaussianBlur2444" />
    </filter>
  </defs>
  <sodipodi:namedview
     pagecolor="#ffffff"
     bordercolor="#666666"
     borderopacity="1"
     objecttolerance="10"
     gridtolerance="10"
     guidetolerance="10"
     inkscape:pageopacity="0"
     inkscape:pageshadow="2"
     inkscape:window-width="1360"
     inkscape:window-height="714"
     id="namedview64"
     showgrid="true"
     inkscape:zoom="10.429825"
     inkscape:cx="5.8602957"
     inkscape:cy="21.447546"
     inkscape:window-x="0"
     inkscape:window-y="28"
     inkscape:window-maximized="1"
     inkscape:current-layer="svg62">
    <inkscape:grid
       type="xygrid"
       id="grid3098" />
  </sodipodi:namedview>
  <linearGradient
     id="a"
     gradientUnits="userSpaceOnUse"
     x1="56"
     x2="56"
     y1="32"
     y2="88.117546">
    <stop
       offset="0"
       stop-color="#fff"
       id="stop2" />
    <stop
       offset="1"
       stop-color="#fff"
       stop-opacity="0"
       id="stop4" />
  </linearGradient>
  <filter
     id="b">
    <feGaussianBlur
       stdDeviation="1.9"
       id="feGaussianBlur7" />
  </filter>
  <filter
     id="c">
    <feGaussianBlur
       stdDeviation="1.1263538"
       id="feGaussianBlur10" />
  </filter>
  <linearGradient
     id="d"
     gradientUnits="userSpaceOnUse"
     x1="52"
     x2="52"
     y1="64"
     y2="68">
    <stop
       offset="0"
       id="stop13" />
    <stop
       offset="1"
       stop-opacity="0"
       id="stop15" />
  </linearGradient>
  <radialGradient
     id="e"
     cx="48"
     cy="112"
     gradientTransform="matrix(1.3667896 .00220264 -.00165678 1.028074 -1.13535 -13.092416)"
     gradientUnits="userSpaceOnUse"
     r="32">
    <stop
       offset="0"
       stop-color="#ffea00"
       id="stop18" />
    <stop
       offset="1"
       stop-color="#ffa000"
       id="stop20" />
  </radialGradient>
  <radialGradient
     id="f"
     cx="100.88867"
     cy="155.99673"
     gradientTransform="matrix(5.8172522 0 0 5.1765744 -450.23524 -615.02583)"
     gradientUnits="userSpaceOnUse"
     r="40">
    <stop
       offset="0"
       stop-color="#fff"
       id="stop23" />
    <stop
       offset=".11366145"
       stop-color="#bdbebf"
       id="stop25" />
    <stop
       offset=".20296688"
       stop-color="#ececec"
       id="stop27" />
    <stop
       offset=".2363"
       stop-color="#fafafa"
       id="stop29" />
    <stop
       offset=".38818121"
       stop-color="#fff"
       id="stop31" />
    <stop
       offset=".5313"
       stop-color="#fafafa"
       id="stop33" />
    <stop
       offset=".8449"
       stop-color="#ebecec"
       id="stop35" />
    <stop
       offset="1"
       stop-color="#e1e2e3"
       id="stop37" />
  </radialGradient>
  <filter
     id="g"
     height="1.294962"
     width="1.106002"
     x="-.053001"
     y="-.147481">
    <feGaussianBlur
       stdDeviation="1.4133574"
       id="feGaussianBlur40" />
  </filter>
  <clipPath
     id="h">
    <path
       d="m19.483356 55.223471c-1.219674 0-2.1875.967827-2.1875 2.1875v17.0625c9.640302 2.396967 19.213441 4.526529 30.704145 4.526529s22.359699-2.129562 32-4.526529v-17.0625c0-1.219674-.967827-2.1875-2.1875-2.1875z"
       filter="url(#g)"
       id="path43" />
  </clipPath>
  <g
     transform="matrix(.3636375 0 0 .3636375 -.401869 .255835)"
     id="g60">
    <path
       d="m 22.438268,48.6875 c -3.884437,0 -6.999999,3.146813 -6.999999,7.03125 v 57.96875 c 0,3.88444 3.115562,7 6.999999,7 l 58.561732,0 c 3.884437,0 7,-3.11556 7,-7 V 55.71875 C 88,51.834313 84.884437,48.6875 81,48.6875 l -6.846494,-0.04752 -0.0269,5.039421 c 0,0.95614 -0.762611,1.71875 -1.71875,1.71875 H 60.90516 c -0.95614,0 -1.71875,-0.762611 -1.71875,-1.71875 l 0.0269,-5.039421 z"
       style="fill:#020202;stroke:#000000;stroke-width:2;stroke-linecap:round;stroke-linejoin:round;stroke-dashoffset:1.08780003;filter:url(#b)"
       transform="matrix(1.2962495,0,0,1.3017032,2.059823,-46.237988)"
       id="path46"
       inkscape:connector-curvature="0"
       sodipodi:nodetypes="csssssscccssccc" />
    <path
       d="m 29.851958,15.358263 c -4.842843,0 -8.709337,3.920611 -8.746884,8.783687 v 67.154219 10.738841 c 0,4.86324 3.904041,8.7837 8.746884,8.7837 l 78.497522,0 c 4.84284,0 8.74689,-3.92046 8.74689,-8.7837 V 24.14195 c 0,-4.863221 -3.90405,-8.783687 -8.74689,-8.783687 l -11.244643,-0.06186 -0.03487,5.72119 c 0,1.267689 -1.006861,2.278788 -2.269241,2.278788 H 83.339255 c -1.262376,0 -2.269238,-1.0111 -2.269238,-2.278788 l 0.03487,-5.72119 z"
       id="path48"
       inkscape:connector-curvature="0"
       style="fill:#ffffff"
       sodipodi:nodetypes="cscssssscccssccc" />
    <path
       d="m 29.749387,16.499312 c -3.849102,0 -6.959096,3.123078 -6.959096,6.988378 v 79.20158 c 0,3.86532 3.109992,6.98839 6.959096,6.98839 l 79.272633,0 c 3.84911,0 6.95911,-3.12307 6.95911,-6.98839 V 23.48769 c 0,-3.865299 -3.11,-6.988378 -6.95911,-6.988378 l -11.805245,-0.06186 -0.03487,5.158256 c 0,1.590917 -1.273951,2.870226 -2.858206,2.870226 H 83.997833 c -1.584256,0 -2.8582,-1.279306 -2.8582,-2.870226 l 0.03487,-5.158256 z"
       id="path50"
       inkscape:connector-curvature="0"
       style="fill:url(#f)"
       sodipodi:nodetypes="csssssscccssccc" />
    <rect
       height="67.999786"
       rx="3.081831"
       ry="3.0178499"
       width="79.999748"
       x="29.105049"
       y="35.296345"
       id="rect52"
       style="fill:url(#e)" />
    <rect
       height="32.776531"
       rx="2.2015769"
       transform="matrix(1.3998291,0,0,1.3707673,-2.906808,-51.368322)"
       width="57.131596"
       x="22.868404"
       y="63.223469"
       id="rect54"
       style="fill:url(#d);filter:url(#c)" />
    <path
       d="m 29.787688,100.35341 v 1.37077 c 0,1.67187 1.354793,2.99854 3.062126,2.99854 l 73.263336,0 c 1.70735,0 3.06213,-1.32667 3.06213,-2.99854 v -1.37077 c 0,1.67188 -1.35478,2.99856 -3.06213,2.99856 l -73.263336,0 c -1.707333,0 -3.062126,-1.32668 -3.062126,-2.99856 z"
       id="path56"
       inkscape:connector-curvature="0"
       style="fill:#ffffff"
       sodipodi:nodetypes="csssscssc" />
    <path
       clip-path="url(#h)"
       d="m 25.198321,55.223471 c -1.219674,0 -2.1875,0.967827 -2.1875,2.1875 v 17.0625 C 32.651122,76.870438 42.224261,79 53.714965,79 65.205669,79 70.359699,76.870438 80,74.473471 v -17.0625 c 0,-1.219674 -0.967827,-2.1875 -2.1875,-2.1875 z"
       transform="matrix(1.3998291,0,0,1.3707673,-2.906808,-40.402185)"
       id="path58"
       inkscape:connector-curvature="0"
       style="fill:url(#a);filter:url(#g)"
       sodipodi:nodetypes="sscscsss" />
  </g>
  <g
     id="g3169"
     transform="translate(0,2.9090909)">
    <path
       id="path2497"
       transform="matrix(0,0.3318084,-0.3318084,0,26.710799,-4.3025709)"
       d="M 63.125,5.15625 C 63.466318,5.080268 63.25501,5.112223 62.84375,5.5 62.663318,5.6729642 62.45007,5.8115756 62.21875,5.90625 62.1981,5.91703 62.17726,5.927449 62.15625,5.9375 L 27.78125,37.84375 27.75,37.875 c -0.307849,0.269477 -0.281245,0.07715 -0.28125,0.65625 0,0.612603 -0.05897,0.336906 0.3125,0.6875 0.01053,0.0103 0.02095,0.02072 0.03125,0.03125 l 8.15625,8.1875 c 0.01042,-8.2e-5 0.02083,-8.2e-5 0.03125,0 0.419505,0.394913 0.732683,0.426122 1.1875,0.09375 C 37.1978,47.52072 37.20822,47.5103 37.21875,47.5 L 53.0625,34.84375 c 0.575332,-0.465644 1.41944,-0.570856 2.091471,-0.260688 0.672032,0.310169 1.139608,1.020774 1.158529,1.760688 l -0.09592,34.899732 c 3.27e-4,0.02083 3.27e-4,0.04167 0,0.0625 0.0026,0.540917 0.06438,0.789622 0.09375,0.9375 h 13.348096 c 0.783229,-0.0037 0.933752,-0.154281 0.9375,-0.9375 -3.27e-4,-0.02083 -3.27e-4,-0.04167 0,-0.0625 L 70.5,36.34375 c 0.01892,-0.739914 0.486497,-1.450519 1.158529,-1.760688 C 72.33056,34.272894 73.174668,34.378106 73.75,34.84375 L 89.59375,47.5 c 0.162465,0.123825 1.009528,0.06954 1.1875,-0.0625 0.0047,-0.0035 0.02755,0.0036 0.03125,0 l 8.25,-8.21875 c 0.0103,-0.01053 0.02072,-0.02095 0.03125,-0.03125 0.247682,-0.233751 0.218756,-0.243788 0.21875,-0.65625 0,-0.278737 -0.02225,-0.429259 -0.25,-0.65625 L 99.03125,37.84375 64.0625,5.4375 C 64.05197,5.427199 64.04155,5.416782 64.03125,5.40625 63.94232,5.321654 63.841309,5.287884 63.71875,5.28125 63.592142,5.27241 63.466383,5.251446 63.34375,5.21875 62.885411,5.1118278 63.2143,5.1363707 63.125,5.15625 Z"
       style="fill:url(#n);filter:url(#m)"
       inkscape:connector-curvature="0" />
    <path
       id="path2499"
       transform="matrix(0,0.3318084,-0.3318084,0,26.710799,-4.3025709)"
       d="M 62.9375,4.3125 C 62.91393,4.31775 62.604958,4.5108448 62.21875,4.875 62.085766,4.9945618 61.923374,5.0811708 61.75,5.125 L 27.15625,37.21875 c -0.411685,0.388533 -0.593743,0.45668 -0.59375,1.3125 0,0.855799 0.182112,0.923994 0.59375,1.3125 0.01062,0.01021 0.02104,0.02063 0.03125,0.03125 l 8.15625,8.1875 c 0.0057,0.0058 0.02531,0.02542 0.03125,0.03125 0.715642,0.692211 1.559238,0.718836 2.34375,0.15625 0.0205,-0.01107 0.04134,-0.0215 0.0625,-0.03125 -1.47e-4,-0.01042 -1.47e-4,-0.02083 0,-0.03125 L 53.625,35.53125 c 0.642249,-0.494063 1.75668,0.03383 1.78125,0.84375 l -0.09592,34.899732 c 1.47e-4,0.01042 1.47e-4,0.02083 0,0.03125 0.0034,0.702251 0.100855,1.31529 0.21875,1.5625 0.117895,0.24721 0.04325,0.278606 0.59375,0.28125 h 13.535596 c 1.199172,-0.0057 1.838012,-0.644587 1.84375,-1.84375 -1.47e-4,-0.01042 -1.47e-4,-0.02083 0,-0.03125 L 71.40625,36.375 c 0.02457,-0.809925 1.139001,-1.337813 1.78125,-0.84375 L 89.03125,48.1875 c 1.47e-4,0.01042 1.47e-4,0.02083 0,0.03125 0.0069,0.0053 0.0241,-0.0051 0.03125,0 0.579895,0.416729 1.838395,0.363792 2.34375,-0.125 0.0058,-0.0057 0.02542,-0.02531 0.03125,-0.03125 l 8.25,-8.21875 c 0.01021,-0.01062 0.02063,-0.02104 0.03125,-0.03125 0.44344,-0.418496 0.50001,-0.737695 0.5,-1.28125 0,-0.478351 -0.10759,-0.883175 -0.5625,-1.3125 l -35,-32.4375 C 64.414318,4.5511047 64.083425,4.3930479 63.75,4.375 63.686759,4.3699823 63.62395,4.3595143 63.5625,4.34375 63.186001,4.2559194 63.222441,4.2490686 62.9375,4.3125 Z"
       style="opacity:0.5;fill:url(#o);filter:url(#l)"
       inkscape:connector-curvature="0" />
    <path
       id="path2501"
       d="M 24.956007,16.829675 14.026082,28.442718 c -0.02633,0.02791 -0.06302,0.04374 -0.101399,0.04374 -0.03838,0 -0.07506,-0.01581 -0.101399,-0.04374 l -2.732483,-2.732481 c -0.04791,-0.04953 -0.05245,-0.126647 -0.01068,-0.181453 l 5.283511,-6.607053 H 3.0777277 c -0.076481,-3.64e-4 -0.1383913,-0.06227 -0.1387578,-0.138764 v -4.098718 c 3.636e-4,-0.07648 0.062276,-0.138392 0.1387578,-0.138757 H 16.363636 L 11.080127,7.938439 c -0.04177,-0.054812 -0.03724,-0.13192 0.01068,-0.1814524 l 2.732478,-2.7324829 c 0.02633,-0.02791 0.06303,-0.043729 0.101404,-0.043729 0.03838,0 0.07506,0.015821 0.101399,0.043729 L 24.95601,16.637547 c 0.07849,0.05559 0,0.133891 0,0.192128 z"
       style="fill:url(#k);stroke-width:0.36363637"
       inkscape:connector-curvature="0" />
    <path
       id="path2503"
       d="m 24.988926,16.683079 c -0.0036,-0.01607 -0.01876,-0.03729 -0.03839,-0.05118 L 14.021105,5.0241688 c -0.02633,-0.027913 -0.064,-0.038394 -0.102386,-0.038394 -0.03838,0 -0.06324,0.010487 -0.08958,0.038394 L 12.99113,5.7664484 23.216671,16.631886 c 0.07849,0.05559 0,0.133731 0,0.19197 l -10.225541,10.878237 0.838003,0.742279 c 0.02636,0.02791 0.05121,0.0384 0.08959,0.0384 0.03838,0 0.07604,-0.01047 0.102385,-0.0384 L 24.950533,16.823856 c 0,-0.04368 0.04943,-0.09257 0.03839,-0.140771 z"
       style="fill:#ffffff;stroke-width:0.36363637"
       inkscape:connector-curvature="0" />
  </g>
</svg>
